public/library/tronscan-text-light.svg

<svg width="146" height="36" viewBox="0 0 146 36" fill="none" xmlns="http://www.w3.org/2000/svg">
<g clip-path="url(#clip0)">
<path d="M0 6.9838L17.3888 0L34.8153 6.9838L17.37 13.9864L0 6.9838Z" fill="#C23631"/>
<path d="M1.49855 6.99329V28.6327L0 28.0295V6.99329H1.49855Z" fill="#C23631"/>
<path d="M18.1522 13.0439V34.7776L17.4736 35.0509L16.6631 34.721V13.0439H18.1522Z" fill="#C23631"/>
<path d="M19.4811 34.2405L18.1522 34.7777L17.4736 35.051L16.6631 34.7211L15.4661 34.2405L1.49855 28.6327L0 28.0295V26.4178L1.49855 27.021L16.6631 33.1095L17.4736 33.4393L18.1522 33.7127L19.4811 34.2405Z" fill="#C23631"/>
<path d="M0 6.98376V8.60484L18.1522 15.8902V14.2786L0 6.98376Z" fill="#C23631"/>
<path d="M43.0903 3.65674L17.2852 14.024L17.8412 15.4095L43.0903 5.27781V3.65674Z" fill="#C23631"/>
<path d="M43.0903 10.16L17.2852 20.5179L17.8412 21.9128L43.0903 11.7717V10.16Z" fill="#C23631"/>
<path d="M43.0903 16.6537L17.2852 27.021L17.8412 28.4064L43.0903 18.2748V16.6537Z" fill="#C23631"/>
<path d="M43.0902 23.1567V24.7684L19.481 34.2403L18.1521 34.7776L17.4736 35.0509L16.663 34.721L15.4661 34.2403L16.663 33.7597L17.4736 33.4392L18.1521 33.1659L43.0902 23.1567Z" fill="#C23631"/>
<path d="M54.5792 13.6189H50.7527V11.668H61.12V13.6189H57.3029V23.3642H54.5792V13.6189Z" fill="#101010"/>
<path d="M70.2621 23.383L67.3875 18.8497H65.5026V23.3736H62.8353V11.668H67.5477C70.3752 11.668 72.59 12.5162 72.59 15.1646C72.6052 15.9256 72.3604 16.6691 71.896 17.2722C71.4317 17.8754 70.7755 18.3022 70.0359 18.4821L73.2969 23.383H70.2621ZM65.5497 17.0118H67.2933C69.0086 17.0118 69.9511 16.3898 69.9511 15.1269C69.9511 13.864 69.0086 13.4587 67.2933 13.4587H65.5214L65.5497 17.0118Z" fill="#101010"/>
<path d="M74.4562 17.3888C74.4562 13.6189 76.9066 11.4512 80.4598 11.4512C84.013 11.4512 86.4634 13.6472 86.4634 17.3888C86.4634 18.1772 86.3081 18.9579 86.0064 19.6863C85.7047 20.4147 85.2625 21.0765 84.705 21.634C84.1475 22.1915 83.4857 22.6337 82.7573 22.9354C82.0289 23.2371 81.2482 23.3924 80.4598 23.3924C79.6714 23.3924 78.8907 23.2371 78.1623 22.9354C77.4339 22.6337 76.7721 22.1915 76.2146 21.634C75.6571 21.0765 75.2149 20.4147 74.9132 19.6863C74.6115 18.9579 74.4562 18.1772 74.4562 17.3888V17.3888ZM83.7302 17.3888C83.7302 14.9101 82.4579 13.4304 80.4598 13.4304C78.4617 13.4304 77.1988 14.9101 77.1988 17.3888C77.1988 19.8675 78.4712 21.4226 80.4598 21.4226C82.4484 21.4226 83.7396 19.8487 83.7396 17.3888H83.7302Z" fill="#101010"/>
<path d="M100.092 21.4698L102.438 20.5273C103.281 21.1347 104.293 21.4642 105.332 21.4698C106.708 21.4698 107.434 20.9702 107.434 20.1691C107.434 19.368 106.633 19.0664 105.454 18.6423L103.673 17.992C102.344 17.5113 101.006 16.5971 101.006 14.9478C101.006 13.0628 102.891 11.6774 105.568 11.6774C107.406 11.6963 109.168 12.414 110.497 13.6849L108.357 14.5519C107.547 13.9301 106.551 13.5982 105.53 13.6095C104.371 13.6095 103.645 14.0524 103.645 14.797C103.645 15.5415 104.587 15.8997 105.709 16.2861L107.443 16.9647C109.045 17.5302 110.091 18.4067 110.091 20.0372C110.091 21.9222 108.301 23.4678 105.256 23.4678C103.363 23.3836 101.549 22.6818 100.092 21.4698V21.4698Z" fill="#101010"/>
<path d="M95.8788 11.6773V16.3331V19.1606L90.6952 11.6207H88.1505V23.3641H90.6952V15.8242L95.8788 23.3641H98.4141V11.6679L95.8788 11.6773Z" fill="#101010"/>
<path d="M143.455 11.6773V16.3331V19.1606L138.272 11.6207H135.718V23.3641H138.253V15.8242L143.436 23.3641H145.981V11.6679L143.455 11.6773Z" fill="#101010"/>
<path d="M118.008 21.4698C116.048 21.4698 114.794 19.9241 114.794 17.5019C114.794 15.0797 116.048 13.6095 118.008 13.6095C118.515 13.5909 119.018 13.7046 119.467 13.9392C119.917 14.1739 120.297 14.5215 120.572 14.9478L122.937 14.0053C122.38 13.2316 121.635 12.6116 120.773 12.2029C119.912 11.7943 118.96 11.6102 118.008 11.668C114.512 11.668 112.099 13.8168 112.099 17.5113C112.043 18.3026 112.158 19.0965 112.435 19.8397C112.712 20.5829 113.145 21.2581 113.705 21.8199C114.265 22.3816 114.939 22.8168 115.681 23.0962C116.423 23.3756 117.217 23.4927 118.008 23.4396C118.885 23.4798 119.76 23.319 120.565 22.9694C121.37 22.6199 122.085 22.0908 122.655 21.4227L120.289 20.4802C120.005 20.8022 119.653 21.0578 119.259 21.2288C118.865 21.3998 118.438 21.4821 118.008 21.4698V21.4698Z" fill="#101010"/>
<path d="M133.993 23.1945L130.317 11.7905V11.6774H127.395V11.7905L123.748 23.1945L123.682 23.4113H126.293V23.2888L127.056 20.4613H130.515L131.288 23.2888V23.4113H134.021L133.993 23.1945ZM129.94 18.3878H127.65L127.933 17.3417C128.234 16.2673 128.536 15.1646 128.79 14.0901L129.045 15.0892C129.243 15.8431 129.441 16.616 129.657 17.3417L129.94 18.3878Z" fill="#101010"/>
</g>
<defs>
<clipPath id="clip0">
<rect width="146" height="35.0509" fill="white"/>
</clipPath>
</defs>
</svg>

<svg xmlns="http://www.w3.org/2000/svg" width="146" height="36" fill="none" viewBox="0 0 146 36"><g clip-path="url(#a)"><path fill="#c23631" d="M0 6.984 17.389 0l17.426 6.984-17.445 7.002z"/><path fill="#c23631" d="M1.499 6.993v21.64L0 28.029V6.993zM18.152 13.044v21.734l-.678.273-.81-.33V13.044z"/><path fill="#c23631" d="m19.481 34.24-1.329.538-.678.273-.81-.33-1.198-.48L1.5 28.632 0 28.029v-1.611l1.499.603 15.164 6.088.81.33.68.274zM0 6.984v1.62l18.152 7.286V14.28z"/><path fill="#c23631" d="M43.09 3.657 17.285 14.024l.556 1.386 25.25-10.132zM43.09 10.16 17.285 20.518l.556 1.395 25.25-10.141zM43.09 16.654 17.285 27.02l.556 1.385 25.25-10.131zM43.09 23.157v1.611L19.481 34.24l-1.329.538-.678.273-.811-.33-1.197-.48 1.197-.481.81-.32.68-.274z"/><path fill="#101010" d="M54.58 13.619h-3.827v-1.951H61.12v1.95h-3.817v9.746h-2.724zM70.262 23.383l-2.874-4.533h-1.885v4.524h-2.668V11.668h4.713c2.827 0 5.042.848 5.042 3.497a3.345 3.345 0 0 1-2.554 3.317l3.26 4.901zm-4.712-6.371h1.743c1.716 0 2.658-.622 2.658-1.885s-.942-1.668-2.658-1.668h-1.772zM74.456 17.389c0-3.77 2.45-5.938 6.004-5.938s6.003 2.196 6.003 5.938a6.004 6.004 0 0 1-12.007 0m9.274 0c0-2.479-1.272-3.959-3.27-3.959s-3.261 1.48-3.261 3.959 1.272 4.034 3.26 4.034c1.99 0 3.28-1.574 3.28-4.034zM100.092 21.47l2.346-.943a5 5 0 0 0 2.894.943c1.376 0 2.102-.5 2.102-1.3 0-.802-.801-1.104-1.98-1.528l-1.781-.65c-1.329-.48-2.667-1.395-2.667-3.044 0-1.885 1.885-3.27 4.562-3.27a7.24 7.24 0 0 1 4.929 2.007l-2.14.867a4.56 4.56 0 0 0-2.827-.942c-1.159 0-1.885.442-1.885 1.187 0 .744.942 1.103 2.064 1.49l1.734.678c1.602.565 2.648 1.442 2.648 3.072 0 1.885-1.79 3.43-4.835 3.43a8.68 8.68 0 0 1-5.164-1.997M95.879 11.677v7.484l-5.184-7.54h-2.544v11.743h2.544v-7.54l5.184 7.54h2.535V11.668zM143.455 11.677v7.484l-5.183-7.54h-2.554v11.743h2.535v-7.54l5.183 7.54h2.545V11.668zM118.008 21.47c-1.96 0-3.214-1.546-3.214-3.968s1.254-3.892 3.214-3.892a2.92 2.92 0 0 1 2.564 1.338l2.365-.943a5.65 5.65 0 0 0-4.929-2.337c-3.496 0-5.909 2.149-5.909 5.843a5.55 5.55 0 0 0 1.606 4.309 5.55 5.55 0 0 0 4.303 1.62 5.76 5.76 0 0 0 4.647-2.017l-2.366-.943a2.93 2.93 0 0 1-2.281.99M133.993 23.195l-3.676-11.404v-.114h-2.922v.114l-3.647 11.404-.066.216h2.611v-.122l.763-2.828h3.459l.773 2.828v.122h2.733zm-4.053-4.807h-2.29l.283-1.046c.301-1.075.603-2.177.857-3.252l.255 1c.198.753.396 1.526.612 2.252z"/></g><defs><clipPath id="a"><path fill="#fff" d="M0 0h146v35.051H0z"/></clipPath></defs></svg>
